src/svg/whatsapp.svg

<svg width="20" height="21" viewBox="0 0 20 21" fill="none" xmlns="http://www.w3.org/2000/svg">
<g clip-path="url(#clip0_101_129)">
<path d="M0.426782 9.9575C0.426313 11.651 0.868813 13.3046 1.71022 14.7621L0.346313 19.742L5.44256 18.4057C6.85212 19.1731 8.43142 19.5751 10.0363 19.5752H10.0405C15.3386 19.5752 19.6513 15.2641 19.6536 9.96507C19.6546 7.39734 18.6555 4.98281 16.8404 3.16625C15.0255 1.34984 12.6119 0.348981 10.0401 0.347809C4.74147 0.347809 0.429048 4.65875 0.42686 9.9575" fill="url(#paint0_linear_101_129)"/>
<path d="M0.0835938 9.95438C0.0830469 11.7088 0.541406 13.4216 1.41281 14.9312L0 20.0896L5.27898 18.7055C6.73352 19.4985 8.37117 19.9166 10.0376 19.9173H10.0419C15.53 19.9173 19.9977 15.451 20 9.96234C20.0009 7.30234 18.9659 4.80102 17.0859 2.91937C15.2057 1.03797 12.7057 0.00109375 10.0419 0C4.55281 0 0.0858594 4.46563 0.0836719 9.95438H0.0835938ZM3.22734 14.6713L3.03023 14.3584C2.20164 13.0409 1.7643 11.5184 1.76492 9.955C1.76672 5.39289 5.47953 1.68125 10.045 1.68125C12.2559 1.68219 14.3337 2.54406 15.8966 4.10781C17.4593 5.67172 18.3192 7.75063 18.3187 9.96172C18.3166 14.5238 14.6037 18.2359 10.0419 18.2359H10.0386C8.5532 18.2352 7.09641 17.8363 5.82594 17.0824L5.52359 16.9031L2.39094 17.7245L3.22734 14.6712V14.6713Z" fill="url(#paint1_linear_101_129)"/>
<path d="M7.55297 5.79281C7.36656 5.37852 7.17039 5.37016 6.99312 5.36289C6.84797 5.35664 6.68203 5.35711 6.51625 5.35711C6.35031 5.35711 6.0807 5.41953 5.85281 5.66836C5.62468 5.91742 4.98187 6.5193 4.98187 7.74344C4.98187 8.96766 5.87351 10.1507 5.99781 10.3169C6.12226 10.4827 7.71914 13.0752 10.2482 14.0726C12.3501 14.9014 12.7778 14.7366 13.234 14.695C13.6902 14.6536 14.7062 14.0933 14.9134 13.5123C15.1209 12.9313 15.1209 12.4334 15.0587 12.3293C14.9965 12.2256 14.8305 12.1634 14.5817 12.039C14.3328 11.9145 13.1095 11.3126 12.8815 11.2295C12.6534 11.1466 12.4875 11.1052 12.3216 11.3543C12.1556 11.603 11.6791 12.1634 11.5339 12.3293C11.3888 12.4956 11.2436 12.5163 10.9948 12.3919C10.7459 12.267 9.94453 12.0046 8.99383 11.157C8.25414 10.4975 7.75476 9.68305 7.60961 9.43391C7.46445 9.18516 7.59406 9.05031 7.71883 8.92633C7.83062 8.81484 7.96773 8.63578 8.09226 8.49055C8.21633 8.34523 8.25773 8.24156 8.3407 8.07562C8.42375 7.90953 8.38218 7.76422 8.32008 7.63977C8.25773 7.51531 7.77422 6.28484 7.55297 5.79289" fill="white"/>
</g>
<defs>
<linearGradient id="paint0_linear_101_129" x1="9.99995" y1="19.742" x2="9.99995" y2="0.347809" gradientUnits="userSpaceOnUse">
<stop stop-color="#1FAF38"/>
<stop offset="1" stop-color="#60D669"/>
</linearGradient>
<linearGradient id="paint1_linear_101_129" x1="10" y1="20.0896" x2="10" y2="0" gradientUnits="userSpaceOnUse">
<stop stop-color="#F9F9F9"/>
<stop offset="1" stop-color="white"/>
</linearGradient>
<clipPath id="clip0_101_129">
<rect width="20" height="20.1562" fill="white"/>
</clipPath>
</defs>
</svg>

<svg width="20" height="21" fill="none" xmlns="http://www.w3.org/2000/svg"><g clip-path="url(#a)"><path d="M.427 9.957c0 1.694.442 3.348 1.283 4.805l-1.364 4.98 5.097-1.336a9.608 9.608 0 0 0 4.593 1.17h.005c5.298 0 9.61-4.312 9.613-9.61a9.55 9.55 0 0 0-2.814-6.8 9.553 9.553 0 0 0-6.8-2.818C4.741.348.43 4.658.427 9.958" fill="url(#b)"/><path d="M.084 9.954c-.001 1.755.457 3.468 1.329 4.977L0 20.09l5.279-1.384a9.955 9.955 0 0 0 4.759 1.211h.004c5.488 0 9.956-4.466 9.958-9.955a9.895 9.895 0 0 0-2.914-7.043A9.896 9.896 0 0 0 10.042 0C4.552 0 .086 4.466.084 9.954Zm3.143 4.717-.197-.313a8.252 8.252 0 0 1-1.265-4.403c.002-4.562 3.715-8.274 8.28-8.274 2.21.001 4.289.863 5.852 2.427a8.225 8.225 0 0 1 2.422 5.854c-.002 4.562-3.715 8.274-8.277 8.274h-.003c-1.486 0-2.943-.4-4.213-1.154l-.302-.179-3.133.822.836-3.054Z" fill="url(#c)"/><path d="M7.553 5.793c-.186-.414-.383-.423-.56-.43-.145-.006-.311-.006-.477-.006a.914.914 0 0 0-.663.311c-.228.25-.871.851-.871 2.075 0 1.225.892 2.408 1.016 2.574.124.166 1.721 2.758 4.25 3.756 2.102.828 2.53.664 2.986.622.456-.041 1.472-.602 1.68-1.183.207-.58.207-1.079.145-1.183-.063-.103-.228-.166-.477-.29-.25-.124-1.473-.726-1.7-.81-.229-.082-.394-.124-.56.125-.166.249-.643.81-.788.975-.145.167-.29.187-.54.063-.248-.125-1.05-.387-2-1.235-.74-.66-1.24-1.474-1.384-1.723-.146-.249-.016-.384.109-.508.112-.111.249-.29.373-.435.124-.146.166-.25.249-.415.083-.166.041-.312-.02-.436-.063-.125-.547-1.355-.768-1.847" fill="#fff"/></g><defs><linearGradient id="b" x1="10" y1="19.742" x2="10" y2=".348" gradientUnits="userSpaceOnUse"><stop stop-color="#1FAF38"/><stop offset="1" stop-color="#60D669"/></linearGradient><linearGradient id="c" x1="10" y1="20.09" x2="10" y2="0" gradientUnits="userSpaceOnUse"><stop stop-color="#F9F9F9"/><stop offset="1" stop-color="#fff"/></linearGradient><clipPath id="a"><path fill="#fff" d="M0 0h20v20.156H0z"/></clipPath></defs></svg>
